img/svg/warning.svg

<svg width="17" height="15" viewBox="0 0 17 15" fill="none" xmlns="http://www.w3.org/2000/svg">
<path d="M8.5 8.23127V4.58676M8.5 10.9326V10.9647M13.2249 14H3.77506C2.48425 14 1.39494 13.1682 1.05221 12.0303C0.90591 11.5445 1.08567 11.0385 1.36063 10.6077L6.08557 2.30083C7.19258 0.566388 9.80742 0.56639 10.9144 2.30083L15.6394 10.6077C15.9143 11.0385 16.0941 11.5445 15.9478 12.0303C15.6051 13.1682 14.5157 14 13.2249 14Z" stroke="#594312" stroke-width="1.5" stroke-linecap="round" stroke-linejoin="round"/>
</svg>

<svg width="17" height="15" viewBox="0 0 17 15" fill="none" xmlns="http://www.w3.org/2000/svg"><path d="M8.5 8.231V4.587m0 6.346v.032M13.225 14h-9.45c-1.29 0-2.38-.832-2.723-1.97-.146-.486.034-.991.309-1.422L6.086 2.3C7.193.566 9.807.566 10.914 2.3l4.725 8.307c.275.43.455.936.309 1.422-.343 1.138-1.432 1.97-2.723 1.97z" stroke="#594312" stroke-width="1.5" stroke-linecap="round" stroke-linejoin="round"/></svg>
